fs/calendar_3_day_20_filled.svg

<svg viewBox="0 0 20 20" fill="none" xmlns="http://www.w3.org/2000/svg" height="1em" width="1em">
  <path d="M14.5 3C15.8807 3 17 4.11929 17 5.5V14.5C17 15.8807 15.8807 17 14.5 17H5.5C4.11929 17 3 15.8807 3 14.5V5.5C3 4.11929 4.11929 3 5.5 3H14.5ZM6.5 6C6.25454 6 6.05039 6.17688 6.00806 6.41012L6 6.5V13.5L6.00806 13.5899C6.05039 13.8231 6.25454 14 6.5 14C6.74546 14 6.94961 13.8231 6.99194 13.5899L7 13.5V6.5L6.99194 6.41012C6.94961 6.17688 6.74546 6 6.5 6ZM10 6C9.75454 6 9.55039 6.17688 9.50806 6.41012L9.5 6.5V13.5L9.50806 13.5899C9.55039 13.8231 9.75454 14 10 14C10.2455 14 10.4496 13.8231 10.4919 13.5899L10.5 13.5V6.5L10.4919 6.41012C10.4496 6.17688 10.2455 6 10 6ZM13.5 6C13.2545 6 13.0504 6.17688 13.0081 6.41012L13 6.5V13.5L13.0081 13.5899C13.0504 13.8231 13.2545 14 13.5 14C13.7455 14 13.9496 13.8231 13.9919 13.5899L14 13.5V6.5L13.9919 6.41012C13.9496 6.17688 13.7455 6 13.5 6Z" fill="#212121"/>
</svg>

<svg viewBox="0 0 20 20" fill="none" xmlns="http://www.w3.org/2000/svg" height="1em" width="1em">
  <path d="M14.5 3A2.5 2.5 0 0 1 17 5.5v9a2.5 2.5 0 0 1-2.5 2.5h-9A2.5 2.5 0 0 1 3 14.5v-9A2.5 2.5 0 0 1 5.5 3h9Zm-8 3a.5.5 0 0 0-.492.41L6 6.5v7l.008.09a.5.5 0 0 0 .984 0L7 13.5v-7l-.008-.09A.5.5 0 0 0 6.5 6ZM10 6a.5.5 0 0 0-.492.41L9.5 6.5v7l.008.09a.5.5 0 0 0 .984 0l.008-.09v-7l-.008-.09A.5.5 0 0 0 10 6Zm3.5 0a.5.5 0 0 0-.492.41L13 6.5v7l.008.09a.5.5 0 0 0 .984 0L14 13.5v-7l-.008-.09A.5.5 0 0 0 13.5 6Z" fill="#212121"/>
</svg>
